assets/svg/314-K.svg

<svg xmlns="http://www.w3.org/2000/svg" xmlns:xlink="http://www.w3.org/1999/xlink" width="16.63" height="16.63"><defs><path id="a" d="M0 0h16.63v16.63H0z"/></defs><clipPath id="b"><use xlink:href="#a" overflow="visible"/></clipPath><path fill="none" stroke="#000" stroke-width=".4" d="m10.57 0-.4 1.57M11.54 0l-.44 1.77M14.25 3 15.6.42m-.5 3 1.35-2.6M10.73 3.6l-2.9.28m3.02.66-2.9.28M2.88 3.8l2-2.12m-1.3 2.75 2-2.1M1.1 7.03.1 4.3m.88-.36 1 2.74M8.55 8.7 5.72 8m3.03-.23-2.83-.7m7.24-.3-.57 2.86m.93.17.57-2.87M3.85 9.53 1.2 10.75m3.07-.37L1.63 11.6m8.02.1-2.47 1.56m2.99-.76L7.7 14.04m-4.18 1.89-1.38-2.56m.82-.47 1.38 2.56m11.13-1.06-2.5-1.47m.45-.83 2.5 1.48m-5.02 1.79-.33 1.26m1.23-1.06-.26 1.06" clip-path="url(#b)"/></svg>

<?xml version="1.0"?>
<svg xmlns="http://www.w3.org/2000/svg" xmlns:xlink="http://www.w3.org/1999/xlink" width="16.631" height="16.632">
  <defs>
    <path id="a" d="M0 0h16.63v16.63H0z"/>
  </defs>
  <clipPath id="b">
    <use xlink:href="#a" overflow="visible"/>
  </clipPath>
  <path fill="none" stroke="#000" stroke-width=".4" d="M10.57 0l-.4 1.57M11.54 0l-.44 1.77M14.25 3L15.6.42M15.1 3.42l1.35-2.6M10.73 3.6l-2.9.28M10.85 4.54l-2.9.28M2.88 3.8l2-2.12M3.58 4.43l2-2.1M1.1 7.03L.1 4.3M.98 3.94l1 2.74M8.55 8.7L5.72 8M8.75 7.77l-2.83-.7M13.16 6.77l-.57 2.86M13.52 9.8l.57-2.87M3.85 9.53L1.2 10.75M4.27 10.38L1.63 11.6M9.65 11.7l-2.47 1.56M10.17 12.5L7.7 14.04M3.52 15.93l-1.38-2.56M2.96 12.9l1.38 2.56M15.47 14.4l-2.5-1.47M13.42 12.1l2.5 1.48M10.9 15.37l-.33 1.26M11.8 15.57l-.26 1.06" clip-path="url(#b)"/>
</svg>
